X: 39472
T: Tarmon's
R: polka
M: 2/4
K: Gmajor
E|:D2 G2 G2 B2|ABAG E2 D2|G2 G2 A2 GA|B2 A2 A3 B|
D2 G2 G2 B2|ABAG E2 D2|G4 A2 GA|1 B2 G2 G3 E:|2 B2 G2 G3 A||
|:B2 d2 {cd}c2 B2|A2 G2 E2 D2|G2 G2 A2 GA|B2 A2 A3 G|
B2 d2 c2 {Bc}B2|A2 G2 E2 D2|G4 A2 GA|1 B2 G2 G3 A:|2 B2 G2 G4||

